dist/images/service-2.svg

<svg xmlns="http://www.w3.org/2000/svg" width="150" height="131"><path fill-rule="evenodd" fill="#F67A00" d="M99.897 13.269V4.313c0-.363-.146-.69-.38-.925l-.006-.006c-.234-.235-.56-.282-.923-.282H5.195c-.362 0-.69.048-.928.285.043.238-.382.566-.382.928v122.371c0 .776.425.691.382.929.238.235.566.383.928.383h93.393c.362 0 .689-.148.927-.383.235-.238.382-.153.382-.929v-11.207H58.469a4.284 4.284 0 01-3.032-1.264 4.31 4.31 0 01-1.272-3.049V56.298c0-.829.67-1.501 1.497-1.501a1.5 1.5 0 011.498 1.501v54.866c0 .353.137.681.387 1.786.234-.621.56-.474.922-.474h8.878c4.407-1.336 6.173-3.323 6.019-7.813h.004c.05-.778 1.31-1.395 1.488-1.395l59.995.04c.129-.006.262.005.395.035 1.272.181 1.31.982 1.129 1.788-.936 4.18-2.631 6.767-5.129 8.34-2.436 2.029-5.516 2.006-9.337 2.006h-19.018v11.207a4.307 4.307 0 01-1.264 3.043l-.005.005a4.288 4.288 0 01-3.036 1.266H5.195c-1.065 0-2.256-.486-3.036-1.266l-.006-.005a4.306 4.306 0 01-1.263-3.043V4.313c0-1.184.484-1.793 1.263-3.042C2.964.458 4.46 0 5.195 0h93.393c1.178 0 2.252.484 3.033 1.264.81 1.486 1.272 1.899 1.272 3.049v20.191h19.018c2.039 0 2.262.485 3.041 1.266l-.003.004.003.002a4.296 4.296 0 011.263 3.042l.033 36.165 7.736-7.629c.566-.559 1.464-.572 2.316-.046l.01-.002 6.686 6.27c.613.554.663 2.204.111 2.116.583.042.193.081-.118.117l-16.73 16.543-.044 8.558a1.5 1.5 0 01-1.497 1.501 1.5 1.5 0 01-1.498-1.501l-.006-5.597-9.941 9.805a1.48 1.48 0 01-1.11.428h-.015l-.007-.001-6.233-.276a1.494 1.494 0 01-1.427-1.425l-.302-6.394c-.021.35.153-.849.444-1.138l18.618-18.363-.021-39.131c0-.362.52-.69-.382-.929l-.004.004a1.302 1.302 0 00-.923-.388H58.469c-.353 0-.679.138-.928.388a1.305 1.305 0 00-.381.925v9.569a1.5 1.5 0 01-1.498 1.501 1.499 1.499 0 01-1.497-1.501v-9.569a4.31 4.31 0 011.262-3.04l.005-.004a4.286 4.286 0 013.037-1.27h41.428V13.269zm-14.612.001c.827 0 1.497.714 1.497 1.5s-.538 1.36-1.245 1.479a1.373 1.373 0 01-.233.022h-.038a1.5 1.5 0 01.019-3.001zm-.03 3.001H44.943l-.054.001H33.765v3.309l9.543 9.092h3.016c.96 0 2.446.797 2.446 1.758v8.532c0 .965-1.486 1.757-2.446 1.757H18.213a1.757 1.757 0 01-1.754-1.757v-8.532a1.76 1.76 0 011.754-1.758h3.177l9.381-9.271v-3.13H14.189a1.504 1.504 0 01-1.498-1.501c0-.826.673-1.5 1.498-1.5h1.708l69.388-.002-.03 3.002zm-6.311 82.436c-3.504 0-6.344-2.848-6.344-6.359s2.84-6.358 6.344-6.358c3.504 0 6.344 2.847 6.344 6.358 0 3.511-2.84 6.359-6.344 6.359zm-4.331-42.959h30.701c1.982 0 1.982 3.002 0 3.002H74.613c-1.981 0-1.981-3.002 0-3.002zm0-12.43h30.701c1.982 0 1.982 3.002 0 3.002H74.613c-1.981 0-1.981-3.002 0-3.002zm0 6.192h30.701c1.982 0 1.982 3.002 0 3.002H74.613c-1.981 0-1.981-3.002 0-3.002zm0 18.668h30.701c1.982 0 1.982 3.002 0 3.002H74.613c-1.981 0-1.981-3.002 0-3.002zm0-6.238h30.701c1.982 0 1.982 3.001 0 3.001H74.613c-1.981 0-1.981-3.001 0-3.001zM11.42 45.162h43.762c1.981 0 1.981 3.001 0 3.001l-43.762.001a.356.356 0 00-.222.064v72.227a.35.35 0 00.222.066h71.327c1.981 0 1.98 3.002 0 3.002H11.42a3.328 3.328 0 01-2.204-.831c-.624-.556-1.013-1.335-1.013-2.2v-72.3c0-.865.388-1.644 1.013-2.2a3.327 3.327 0 012.204-.83zm7.26 9.621h10.154c.891 0 1.615.76 1.615 1.693V67.98c0 .34-.724.812-1.615.812H18.68c-1.504 0-2.227-.472-2.227-.812V56.476c0-.933.723-1.693 2.227-1.693zm0 40.057h10.154c.891 0 1.615.76 1.615 1.694v10.621c0 1.735-.724 1.695-1.615 1.695H18.68c-1.504 0-2.227.04-2.227-1.695V96.534c0-.934.723-1.694 2.227-1.694zm18.154 0h10.767c.89 0 1.615.76 1.615 1.694v10.621c0 1.735-.725 1.695-1.615 1.695H36.834c-.89 0-1.614.04-1.614-1.695V96.534c0-.934.724-1.694 1.614-1.694zm0-20.012h10.767c.89 0 1.615.76 1.615 1.694v10.622c0 1.626-.725 1.693-1.615 1.693H36.834c-.89 0-1.614-.067-1.614-1.693V76.522c0-.934.724-1.694 1.614-1.694zm-18.154 0h10.154c.891 0 1.615.76 1.615 1.694v10.622c0 1.626-.724 1.693-1.615 1.693H18.68c-1.504 0-2.227-.067-2.227-1.693V76.522c0-.934.723-1.694 2.227-1.694zm18.154-20.045h10.767c.89 0 1.615.76 1.615 1.693V67.98c0 .34-.725.812-1.615.812H36.834c-.89 0-1.614-.472-1.614-.812V56.476c0-.933.724-1.693 1.614-1.693zm2.127-26.11l-6.787-6.467-6.788 6.467h13.575zm6.849 3.003H19.455v6.042H45.81v-6.042zm26.948 80.8h49.153c3.295 0 5.879-.363 7.747-1.538 1.449-.678 2.543-2.38 3.303-4.641l-56.726-.038c-.277 2.695-1.103 5.441-3.477 6.217zm65.611-59.259l1.187-1.007c.896-1.091 2.052-1.515 3.218-1.506 1.172.009 2.355.46 3.726 2.096l1.882 1.344.022.02.002-.002.067.063.054.055c.889.899 1.245 2.088 1.166 3.276a5.193 5.193 0 01-1.333 3.105l.004.004a4.73 4.73 0 01-.128.132l-.833.85a1.49 1.49 0 01-2.063.062l-.002.002-6.966-6.269a1.5 1.5 0 01-.003-2.225zm3.305.915l-.133.133 4.726 4.254a2.17 2.17 0 00.442-1.162c.025-.372-.066-.724-.297-.964l-.065-.062.002-.002-1.969-2.117c-.709-.335-1.169-.515-1.617-.518a1.499 1.499 0 00-1.089.438zM66.882 8.808h6.079a2.485 2.485 0 012.474 2.479v10.219H64.409V11.287a2.483 2.483 0 012.473-2.479z"/></svg>

<svg 
 xmlns="http://www.w3.org/2000/svg"
 xmlns:xlink="http://www.w3.org/1999/xlink"
 width="150px" height="131px">
<path fill-rule="evenodd"  fill="rgb(246, 122, 0)"
 d="M99.897,13.269 L99.897,4.313 C99.897,3.950 99.751,3.623 99.517,3.388 L99.511,3.382 C99.277,3.147 98.951,3.1 98.588,3.1 L91.704,3.1 L5.195,3.1 C4.833,3.1 4.505,3.148 4.267,3.385 C4.31,3.623 3.885,3.951 3.885,4.313 L3.885,16.243 L3.885,126.684 C3.885,127.46 4.31,127.375 4.267,127.613 C4.505,127.848 4.833,127.996 5.195,127.996 L98.588,127.996 C98.950,127.996 99.277,127.848 99.515,127.613 C99.750,127.375 99.897,127.46 99.897,126.684 L99.897,115.477 L58.469,115.477 C57.291,115.477 56.218,114.993 55.437,114.213 C54.627,113.401 54.165,112.314 54.165,111.164 L54.165,56.298 C54.165,55.469 54.835,54.797 55.662,54.797 C56.489,54.797 57.160,55.469 57.160,56.298 L57.160,111.164 C57.160,111.517 57.297,111.845 57.547,112.95 C57.781,112.329 58.107,112.476 58.469,112.476 L67.347,112.476 C71.754,111.14 73.52,109.153 73.366,104.663 L73.370,104.663 C73.420,103.885 74.68,103.268 74.858,103.268 L134.853,103.308 C134.982,103.302 135.115,103.313 135.248,103.343 C136.52,103.524 136.558,104.325 136.377,105.131 C135.441,109.311 133.746,111.898 131.248,113.471 C128.812,115.5 125.732,115.477 121.911,115.477 L102.893,115.477 L102.893,126.684 C102.893,127.867 102.408,128.945 101.629,129.727 L101.624,129.732 C100.844,130.512 99.769,130.998 98.588,130.998 L5.195,130.998 C4.13,130.998 2.939,130.512 2.159,129.732 L2.153,129.727 C1.374,128.945 0.890,127.867 0.890,126.684 L0.890,4.313 C0.890,3.129 1.374,2.52 2.153,1.271 C2.964,0.458 4.46,0.0 5.195,0.0 L98.588,0.0 C99.766,0.0 100.840,0.484 101.621,1.264 C102.431,2.75 102.893,3.163 102.893,4.313 L102.893,24.504 L121.911,24.504 C123.95,24.504 124.173,24.989 124.952,25.770 L124.949,25.774 L124.952,25.776 C125.732,26.557 126.215,27.634 126.215,28.818 L126.248,64.983 L133.984,57.354 C134.550,56.795 135.448,56.782 136.30,57.308 L136.31,57.306 L142.996,63.576 C143.609,64.130 143.659,65.78 143.107,65.692 C143.69,65.734 143.30,65.773 142.989,65.809 L126.259,82.352 L126.215,90.910 C126.215,91.738 125.544,92.411 124.718,92.411 C123.891,92.411 123.220,91.738 123.220,90.910 L123.214,85.313 L113.273,95.118 C112.967,95.421 112.561,95.564 112.163,95.546 L112.148,95.546 L112.141,95.545 L105.908,95.269 C105.129,95.236 104.516,94.610 104.481,93.844 L104.481,93.844 L104.179,87.450 C104.158,87.8 104.332,86.601 104.623,86.312 L123.241,67.949 L123.220,28.818 C123.220,28.456 123.74,28.128 122.838,27.889 L122.834,27.893 C122.596,27.654 122.269,27.505 121.911,27.505 L58.469,27.505 C58.116,27.505 57.790,27.643 57.541,27.893 C57.306,28.128 57.160,28.456 57.160,28.818 L57.160,38.387 C57.160,39.216 56.489,39.888 55.662,39.888 C54.835,39.888 54.165,39.216 54.165,38.387 L54.165,28.818 C54.165,27.639 54.648,26.562 55.427,25.778 L55.432,25.774 C56.238,24.965 57.326,24.504 58.469,24.504 L99.897,24.504 L99.897,13.269 L99.897,13.269 ZM85.285,13.270 C86.112,13.270 86.782,13.984 86.782,14.770 C86.782,15.556 86.244,16.130 85.537,16.249 C85.461,16.263 85.384,16.270 85.304,16.271 L85.285,16.271 L85.266,16.271 C84.447,16.260 83.788,15.596 83.788,14.770 C83.788,13.945 84.457,13.270 85.285,13.270 L85.285,13.270 ZM85.255,16.271 L44.943,16.271 L44.889,16.272 L33.765,16.272 L33.765,19.581 L43.308,28.673 L46.324,28.673 C47.284,28.673 48.77,29.470 48.77,30.431 L48.77,38.963 C48.77,39.928 47.284,40.720 46.324,40.720 L18.213,40.720 C17.246,40.720 16.459,39.932 16.459,38.963 L16.459,30.431 C16.459,29.462 17.250,28.673 18.213,28.673 L21.39,28.673 L30.771,19.402 L30.771,16.272 L14.189,16.272 C13.365,16.272 12.691,15.597 12.691,14.771 C12.691,13.945 13.364,13.271 14.189,13.271 L15.897,13.271 L85.285,13.269 L85.255,16.271 L85.255,16.271 ZM78.944,98.707 C75.440,98.707 72.600,95.859 72.600,92.348 C72.600,88.837 75.440,85.990 78.944,85.990 C82.448,85.990 85.288,88.837 85.288,92.348 C85.288,95.859 82.448,98.707 78.944,98.707 L78.944,98.707 ZM74.613,55.748 L105.314,55.748 C107.296,55.748 107.296,58.750 105.314,58.750 L74.613,58.750 C72.632,58.750 72.632,55.748 74.613,55.748 L74.613,55.748 ZM74.613,43.318 L105.314,43.318 C107.296,43.318 107.296,46.320 105.314,46.320 L74.613,46.320 C72.632,46.320 72.632,43.318 74.613,43.318 L74.613,43.318 ZM74.613,49.510 L105.314,49.510 C107.296,49.510 107.296,52.512 105.314,52.512 L74.613,52.512 C72.632,52.512 72.632,49.510 74.613,49.510 L74.613,49.510 ZM74.613,68.178 L105.314,68.178 C107.296,68.178 107.296,71.180 105.314,71.180 L74.613,71.180 C72.632,71.180 72.632,68.178 74.613,68.178 L74.613,68.178 ZM74.613,61.940 L105.314,61.940 C107.296,61.940 107.296,64.941 105.314,64.941 L74.613,64.941 C72.632,64.941 72.632,61.940 74.613,61.940 L74.613,61.940 ZM11.420,45.162 C26.7,45.162 40.595,45.162 55.182,45.162 C57.163,45.162 57.163,48.163 55.182,48.163 C40.596,48.163 26.7,48.164 11.420,48.164 C11.324,48.164 11.246,48.189 11.198,48.228 L11.198,120.455 C11.246,120.495 11.324,120.521 11.420,120.521 L82.747,120.521 C84.728,120.521 84.727,123.523 82.747,123.523 C58.971,123.523 35.195,123.523 11.420,123.523 C10.574,123.523 9.793,123.204 9.216,122.692 C8.592,122.136 8.203,121.357 8.203,120.492 L8.203,48.192 C8.203,47.327 8.591,46.548 9.216,45.992 C9.793,45.480 10.574,45.162 11.420,45.162 L11.420,45.162 ZM18.68,54.783 L28.834,54.783 C29.725,54.783 30.449,55.543 30.449,56.476 L30.449,67.98 C30.449,68.32 29.725,68.792 28.834,68.792 L18.68,68.792 C17.176,68.792 16.453,68.32 16.453,67.98 L16.453,56.476 C16.453,55.543 17.176,54.783 18.68,54.783 L18.68,54.783 ZM18.68,94.840 L28.834,94.840 C29.725,94.840 30.449,95.600 30.449,96.534 L30.449,107.155 C30.449,108.89 29.725,108.850 28.834,108.850 L18.68,108.850 C17.176,108.850 16.453,108.89 16.453,107.155 L16.453,96.534 C16.453,95.600 17.176,94.840 18.68,94.840 L18.68,94.840 ZM36.834,94.840 L47.601,94.840 C48.491,94.840 49.216,95.600 49.216,96.534 L49.216,107.155 C49.216,108.89 48.491,108.850 47.601,108.850 L36.834,108.850 C35.944,108.850 35.220,108.89 35.220,107.155 L35.220,96.534 C35.220,95.600 35.944,94.840 36.834,94.840 L36.834,94.840 ZM36.834,74.828 L47.601,74.828 C48.491,74.828 49.216,75.588 49.216,76.522 L49.216,87.144 C49.216,88.77 48.491,88.837 47.601,88.837 L36.834,88.837 C35.944,88.837 35.220,88.77 35.220,87.144 L35.220,76.522 C35.220,75.588 35.944,74.828 36.834,74.828 L36.834,74.828 ZM18.68,74.828 L28.834,74.828 C29.725,74.828 30.449,75.588 30.449,76.522 L30.449,87.144 C30.449,88.77 29.725,88.837 28.834,88.837 L18.68,88.837 C17.176,88.837 16.453,88.77 16.453,87.144 L16.453,76.522 C16.453,75.588 17.176,74.828 18.68,74.828 L18.68,74.828 ZM36.834,54.783 L47.601,54.783 C48.491,54.783 49.216,55.543 49.216,56.476 L49.216,67.98 C49.216,68.32 48.491,68.792 47.601,68.792 L36.834,68.792 C35.944,68.792 35.220,68.32 35.220,67.98 L35.220,56.476 C35.220,55.543 35.944,54.783 36.834,54.783 L36.834,54.783 ZM38.961,28.673 L32.174,22.206 L25.386,28.673 L38.961,28.673 L38.961,28.673 ZM45.81,31.676 L19.455,31.676 L19.455,37.718 L45.81,37.718 L45.81,31.676 L45.81,31.676 ZM72.758,112.476 L121.911,112.476 C125.206,112.476 127.790,112.113 129.658,110.938 C131.107,110.26 132.201,108.558 132.961,106.297 L76.235,106.259 C75.958,108.954 75.132,111.7 72.758,112.476 L72.758,112.476 ZM138.369,53.217 L139.556,52.21 C140.452,51.119 141.608,50.695 142.774,50.704 C143.946,50.713 145.129,51.164 146.50,52.8 L148.382,54.144 L148.404,54.164 L148.406,54.162 L148.473,54.225 L148.527,54.280 C149.416,55.179 149.772,56.368 149.693,57.556 C149.619,58.672 149.143,59.803 148.360,60.661 L148.364,60.665 C148.343,60.688 148.297,60.736 148.236,60.797 L147.403,61.647 C146.840,62.220 145.930,62.243 145.340,61.709 L145.338,61.711 L138.372,55.442 C137.759,54.889 137.709,53.941 138.262,53.326 C138.296,53.287 138.332,53.251 138.369,53.217 L138.369,53.217 ZM141.674,54.132 L141.541,54.265 L146.267,58.519 C146.525,58.183 146.682,57.768 146.709,57.357 C146.734,56.985 146.643,56.633 146.412,56.393 L146.347,56.331 L146.349,56.329 L144.38,54.212 C143.671,53.877 143.211,53.697 142.763,53.694 C142.364,53.691 141.971,53.832 141.674,54.132 L141.674,54.132 ZM66.882,8.808 L72.961,8.808 C74.322,8.808 75.435,9.925 75.435,11.287 L75.435,21.506 L64.409,21.506 L64.409,11.287 C64.409,9.924 65.521,8.808 66.882,8.808 L66.882,8.808 Z"/>
</svg>
